src/xmb/monochrome/Watara - Supervision.svg

<svg xmlns="http://www.w3.org/2000/svg" xml:space="preserve" width="64" height="64"><defs><clipPath id="a" clipPathUnits="userSpaceOnUse"><path d="M0 64h64V0H0z"/></clipPath></defs><g clip-path="url(#a)" transform="matrix(1 0 0 -1 0 64)"><path d="M0 0a2 2 0 1 0 .001 4.001A2 2 0 0 0 0 0m-5-2a2 2 0 1 0 .001 4.001A2 2 0 0 0-5-2m-4 8.5a.5.5 0 0 0 .5.5h3a.5.5 0 0 0 0-1h-3a.5.5 0 0 0-.5.5M-13 0h-2v-2a1 1 0 1 0-2 0v2h-2a1 1 0 1 0 0 2h2v2a1 1 0 1 0 2 0V2h2a1 1 0 1 0 0-2M0 6.5A.5.5 0 0 0-.5 6h-3a.5.5 0 0 0 0 1h3a.5.5 0 0 0 .5-.5M-17 36H1V19h-18zm24.111 4h-30.222C-24.154 40-25 39.167-25 38.138V14.862c0-1.029.846-1.862 1.889-1.862H-20V9h-1.125C-22.161 9-23 8.176-23 7.16V-3.88C-23-9.469-18.383-14-12.688-14h9.375C2.383-14 7-9.469 7-3.88V7.16C7 8.176 6.16 9 5.125 9H4v4h3.111C8.154 13 9 13.833 9 14.862v23.276C9 39.167 8.154 40 7.111 40" style="fill:#fff;fill-opacity:1;fill-rule:nonzero;stroke:none" transform="translate(40 19)"/></g></svg>

<?xml version="1.0" encoding="UTF-8" standalone="no"?>
<!-- Created with Inkscape (http://www.inkscape.org/) -->

<svg
   xmlns:dc="http://purl.org/dc/elements/1.1/"
   xmlns:cc="http://creativecommons.org/ns#"
   xmlns:rdf="http://www.w3.org/1999/02/22-rdf-syntax-ns#"
   xmlns:svg="http://www.w3.org/2000/svg"
   xmlns="http://www.w3.org/2000/svg"
   xmlns:sodipodi="http://sodipodi.sourceforge.net/DTD/sodipodi-0.dtd"
   xmlns:inkscape="http://www.inkscape.org/namespaces/inkscape"
   id="svg6402"
   version="1.1"
   inkscape:version="0.48.5 r10040"
   width="64"
   height="64"
   xml:space="preserve"
   sodipodi:docname="Watara - Supervision.svg"
   inkscape:export-filename="/Users/margetts/Desktop/Icon Workshop/Monochrome July/Watara - Supervision.png"
   inkscape:export-xdpi="360"
   inkscape:export-ydpi="360"><metadata
     id="metadata6408"><rdf:RDF><cc:Work
         rdf:about=""><dc:format>image/svg+xml</dc:format><dc:type
           rdf:resource="http://purl.org/dc/dcmitype/StillImage" /><dc:title></dc:title></cc:Work></rdf:RDF></metadata><defs
     id="defs6406"><clipPath
       clipPathUnits="userSpaceOnUse"
       id="clipPath6416"><path
         d="M 0,64 64,64 64,0 0,0 0,64 z"
         id="path6418"
         inkscape:connector-curvature="0" /></clipPath></defs><sodipodi:namedview
     pagecolor="#808080"
     bordercolor="#666666"
     borderopacity="1"
     objecttolerance="10"
     gridtolerance="10"
     guidetolerance="10"
     inkscape:pageopacity="0"
     inkscape:pageshadow="2"
     inkscape:window-width="1676"
     inkscape:window-height="1005"
     id="namedview6404"
     showgrid="false"
     inkscape:zoom="10.45"
     inkscape:cx="27.990431"
     inkscape:cy="40"
     inkscape:window-x="4"
     inkscape:window-y="1"
     inkscape:window-maximized="1"
     inkscape:current-layer="g6410" /><g
     id="g6410"
     inkscape:groupmode="layer"
     inkscape:label="Watara - Supervision"
     transform="matrix(1.25,0,0,-1.25,0,64)"><g
       id="g6412"
       transform="scale(0.8,0.8)"><g
         id="g6414"
         clip-path="url(#clipPath6416)"><g
           id="g6420"
           transform="translate(40,19)"><path
             d="M 0,0 C -1.104,0 -2,0.896 -2,2 -2,3.104 -1.104,4 0,4 1.104,4 2,3.104 2,2 2,0.896 1.104,0 0,0 m -5,-2 c -1.104,0 -2,0.896 -2,2 0,1.104 0.896,2 2,2 1.104,0 2,-0.896 2,-2 0,-1.104 -0.896,-2 -2,-2 M -9,6.5 C -9,6.776 -8.776,7 -8.5,7 l 3,0 C -5.224,7 -5,6.776 -5,6.5 -5,6.224 -5.224,6 -5.5,6 l -3,0 C -8.776,6 -9,6.224 -9,6.5 m -4,-6.5 -2,0 0,-2 c 0,-0.553 -0.448,-1 -1,-1 -0.552,0 -1,0.447 -1,1 l 0,2 -2,0 c -0.552,0 -1,0.447 -1,1 0,0.553 0.448,1 1,1 l 2,0 0,2 c 0,0.553 0.448,1 1,1 0.552,0 1,-0.447 1,-1 l 0,-2 2,0 c 0.552,0 1,-0.447 1,-1 0,-0.553 -0.448,-1 -1,-1 M 0,6.5 C 0,6.224 -0.224,6 -0.5,6 l -3,0 C -3.776,6 -4,6.224 -4,6.5 -4,6.776 -3.776,7 -3.5,7 l 3,0 C -0.224,7 0,6.776 0,6.5 M -17,36 1,36 1,19 l -18,0 0,17 z m 24.111,4 -30.222,0 C -24.154,40 -25,39.167 -25,38.138 l 0,-23.276 C -25,13.833 -24.154,13 -23.111,13 l 3.111,0 0,-4 -1.125,0 C -22.161,9 -23,8.176 -23,7.16 l 0,-11.04 C -23,-9.469 -18.383,-14 -12.688,-14 l 9.375,0 C 2.383,-14 7,-9.469 7,-3.88 L 7,7.16 C 7,8.176 6.16,9 5.125,9 L 4,9 4,13 7.111,13 C 8.154,13 9,13.833 9,14.862 L 9,38.138 C 9,39.167 8.154,40 7.111,40"
             style="fill:#ffffff;fill-opacity:1;fill-rule:nonzero;stroke:none"
             id="path6422"
             inkscape:connector-curvature="0" /></g></g></g></g></svg>
